X: 61
T: Childen in the Wood
%%VWML:Wrights-3753-p32-0
F: http://www.vwml.org/record/Wrights/3753/p32
B: Daniel Wright "Wright's Compleat Collection of Celebrated Country Dances" 1740 p.32
S: http://library.efdss.org/cgi-bin/dancebooks.cgi
Z: 2014 John Chambers <jc:trillian.mit.edu>
N: Repeats added to match the Note. Redundant "the" in the Note deleted.
M: C
L: 1/4
K: G
P: very Slow
%-------------------------
B |\
A>G G>A | c2 A>G | G3 B | ce dB | A3 B |\
ce dc | d2 A>G | G3 d | (e/f/)g A>G | G3 |]
P: very quick
M: 6/4
|:\
efg g>ag | efg g>ag | f>ef ecA | d2d f2d |\
ece ece | ece e2e | f>gf ecA | d2d f2d :|
%-------------------------
%%center Note. The first Strain once, the Second twice.
%%begintext align
%% The 1st Cu. make thier [sic] Honours & hold their
%% Handkerchiefs to their Eyes as if Crying, The
%% 2d Man & 2d Wo. do the same at the same time, then
%% the same to their Partners again, till the slow Part is
%% Play'd, then the 1st Cu cross over and half Figure
%% thro' the 2d Cu. Right and Left all four round.
%%endtext
%-------------------------
%%sep 2 4 300
T: Holborn March
T: Longways for as many as will.
%R: march
B: Daniel Wright "Wright's Compleat Collection of Celebrated Country Dances" 1740 p.32
S: http://library.efdss.org/cgi-bin/dancebooks.cgi
Z: 2014 John Chambers <jc:trillian.mit.edu>
N: Repeats modified to fit the "Each Strain twice" instruction.
M: C|
L: 1/8
K: F
%-------------------------
|:\
c4 c4 | c6 Bc | d2c2 B2A2 | G6 C2 |\
F2 A4 G2 | A2 c4 B2 | A4 G4 | F8 ::\
g4 g4 | g6 fg | a2g2 f2e2 | d6 G2 |
c2 e4 d2 | e2 g4 f2 | e4 d4 | c8 |\
c4 c4 | c6 Bc | d2c2 B2A2 | G6 C2 |\
F2 A4 G2 | A2 c4 b2 | a2gf g2e2 | f8 :|
%-------------------------
%%center Each Strain twice.
%%begintext align
%% The 1st Cu. set cast off and turn .| The 2d Cu. %% do the same .| the 1st and 2d Cu. Hands across %% half round the same back again .| Then the 1st %% Cu. cross over and Figure.
%%endtext
%-------------------------
%%sep 2 4 300
T: Scipio's March
T: Longways for as many as will.
%R: march, reel
B: Daniel Wright "Wright's Compleat Collection of Celebrated Country Dances" 1740 p.32
S: http://library.efdss.org/cgi-bin/dancebooks.cgi
Z: 2014 John Chambers <jc:trillian.mit.edu>
N: The 2nd Strain has initial repeat but no final repeat; fixed to match the dance instructions. M: C|
L: 1/8
K: D
%-------------------------
DE |\
F4 A4 | d6 DE | FGAB A2GF | E6 A2 |\
Bcd2 c2B2 | A4 G4 | FEDE TE3D | D6 :|
f2 |\
e2d2 cde2 | A4 G4 | F2GF E2D2 | A6 e2 |\
BABc B2B2 | B4 Tc4 | d2cB TB3A | A6 G2 |
FEFG F2E2 | G4 F4 | B2A2 G2F2 | E6 A2 |\
Bcd2 c2B2 | A4 G4 | FEDE TE3D | D6 |]
%-------------------------
%%center The first Strain twice, and the last but once, to the minuet Step.
%%begintext align
%% The 1st Cu. cast off behind the 2d Cu. & cross over into the
%% 3d Cu. Places .| then cast up again and cross over the 2d Cu. in
%% Your own Places :| The 1st Wo. cast off and go quite round
%% the 2d Cu. into your own Place, the 1st Man follow her, then
%% he casts off, she following him & lead thro the 2d Cu. Place
%%endtext
%-------------------------
%%sep 2 4 300
T: Trusty Dick
T: Longways for as many as will.
%R: march, reel
B: Daniel Wright "Wright's Compleat Collection of Celebrated Country Dances" 1740 p.32
S: http://library.efdss.org/cgi-bin/dancebooks.cgi
Z: 2014 John Chambers <jc:trillian.mit.edu>
N: Repeats modified to match the "Each strain twice" instruction.
M: C|
L: 1/8
K: C
%-------------------------
|:\
G2G2 c2c2 | defd e2de |\
f2A2 B2cd | Td3c c4 :|\
dcBc Td3e | dcBc Td3e |
f2A2 BdcB | TA3G G2ef |\
gagf e2dc | defd e2de |\
f2A2 B2cd | Td3c c4 |] %------------------------- %%center Each strain twice. %%begintext align
%% The 1st Cu. clap Hands and cast off and turn %% .| the 2d Cu. do the same, :| then the 1st Cu. %% Cross over and single figure .| then Right %% and Left quite round :|
%%endtext %------------------------- %%sep 2 4 300
